X: 0
T: The Haughs Of Cromdale
C: Trad
O: Scotland
R: strathspey
M: 4/4
L: 1/8
K: Edor
|:c>e|"Em"B<EE>F B>AF>A|B<EE<F "D"D>EF<A|"Em"B<EE>F B>AF>A|B>d B/A/G/F/ E2:|
|:F>E|"D"D<dd>e d>cB<A|F<AA>B A>FE<D|1 "Em"E>ee>f g>ef<d|B<dA>F E2:|
[2 "Em"B>ee>f g/e/f/d/ e>d|B>d B/A/G/F/ E2||